img/logos-img-05.svg

<svg width="151" height="92" viewBox="0 0 151 92" fill="none" xmlns="http://www.w3.org/2000/svg">
<path d="M42.2331 33.3702C42.0615 38.7686 44.7592 41.1592 44.826 42.6774C44.7942 42.9864 44.6889 43.2833 44.5189 43.5433C44.3489 43.8033 44.1192 44.0188 43.8489 44.1718L40.7984 46.3074C40.4036 46.5841 39.9383 46.7428 39.4567 46.765C39.3542 46.7602 37.5048 47.2011 34.5759 40.661C32.789 42.8918 30.5153 44.6841 27.9291 45.9007C25.3428 47.1174 22.5125 47.7261 19.6548 47.6802C15.775 47.8923 5.26044 45.4779 5.80142 34.283C5.4225 25.1593 13.9185 19.4915 22.7053 19.9706C24.3974 19.9753 27.853 20.0588 33.9039 21.465V17.7421C34.5449 11.4355 30.4006 6.54238 23.2248 7.27647C22.6529 7.27886 18.6015 7.1573 12.3003 9.68611C10.5463 10.4917 10.3223 10.3582 9.73843 10.3582C7.9725 10.3582 8.69937 5.23865 9.03778 4.59036C10.2794 3.06497 17.5839 0.216785 24.7524 0.257303C29.5456 -0.166643 34.3131 1.3128 38.0244 4.37585C39.533 6.06351 40.6839 8.03946 41.4077 10.1844C42.1315 12.3293 42.4131 14.5987 42.2354 16.8554L42.2331 33.3702ZM21.6376 41.09C29.3663 40.978 32.6384 36.3304 33.3843 33.8278C33.9706 31.4324 33.8729 29.9166 33.8729 27.2972C31.5683 26.7442 28.251 26.1412 24.445 26.1365C20.8345 25.8648 14.2403 27.4783 14.4976 33.8254C14.2021 37.8271 17.1477 41.3093 21.6376 41.09ZM62.3709 46.5838C60.4977 46.7554 59.6255 45.4255 59.349 44.1122L47.4808 4.86922C47.2496 4.20663 47.0971 3.52259 47.0232 2.82424C46.9795 2.53634 47.0518 2.24282 47.2243 2.00819C47.3967 1.77356 47.6553 1.61702 47.9431 1.57295C48.0003 1.56342 47.4355 1.57295 53.2457 1.57295C55.3381 1.36321 56.0197 3.01015 56.2366 4.04456L64.7493 37.6103L72.6519 4.04456C72.7782 3.2771 73.3526 1.40611 75.7024 1.60394H79.7919C80.3091 1.56103 82.4396 1.48476 82.8138 4.07554L90.7784 38.0703L99.5651 4.07554C99.6795 3.55596 100.213 1.36559 102.587 1.60394H107.287C107.489 1.57295 108.752 1.41088 108.538 3.64891C108.435 4.08984 109.35 1.10818 95.9666 44.1432C95.6925 45.4565 94.8179 46.7864 92.9447 46.6148H88.4905C85.8833 46.8889 85.5092 44.3124 85.4687 44.0526L77.566 11.3688L69.754 44.0193C69.7159 44.2791 69.3417 46.8555 66.7321 46.5814H62.3709V46.5838ZM127.546 47.9257C126.145 47.9281 119.462 47.8542 113.876 44.9965C113.32 44.7608 112.846 44.3653 112.514 43.8599C112.183 43.3545 112.009 42.7621 112.015 42.1578V39.5956C112.015 37.5817 113.492 37.9511 114.119 38.1918C116.512 39.1595 118.047 39.8936 120.985 40.4799C129.719 42.2746 133.561 39.9317 134.503 39.4121C137.636 37.5507 137.884 33.2915 135.754 31.0821C133.256 28.987 132.065 28.9084 123.092 26.0769C121.986 25.7694 112.677 22.8331 112.656 13.5973C112.511 6.86653 118.626 0.20725 129.224 0.262069C132.243 0.259685 140.289 1.24642 142.467 3.98497C142.789 4.48311 142.949 5.06943 142.925 5.6629V8.07254C142.925 9.13077 142.539 9.65989 141.764 9.65989C139.927 9.45492 136.666 6.99761 130.048 7.09772C128.406 7.01191 120.542 7.31461 120.895 13.0491C120.792 17.5681 127.236 19.2627 127.973 19.4581C136.662 22.0727 139.567 22.5065 143.015 26.5083C147.1 31.8114 144.898 38.0202 144.052 39.722C139.505 48.6574 127.746 47.9305 127.546 47.9257ZM137.126 72.9182C120.437 85.2453 96.2096 91.8068 75.5237 91.8068C47.612 91.9909 20.641 81.7267 -0.0874079 63.0318C-1.64362 61.628 -0.270913 59.7046 1.62133 60.7747C24.6153 73.9292 50.6493 80.841 77.1395 80.824C96.9216 80.7179 116.488 76.7045 134.715 69.0142C137.522 67.8225 139.903 70.8733 137.126 72.9182ZM144.083 64.9838C141.948 62.2381 129.955 63.7016 124.586 64.3427C122.968 64.5262 122.694 63.1224 124.16 62.0856C133.709 55.3715 149.393 57.2949 151.194 59.552C152.994 61.8091 150.706 77.5254 141.766 85.0332C140.394 86.1939 139.081 85.5814 139.691 84.056C141.702 78.9912 146.218 67.7319 144.083 64.9838Z" fill="#737373"/>
</svg>

<svg width="151" height="92" fill="none" xmlns="http://www.w3.org/2000/svg"><path d="M42.233 33.37c-.171 5.399 2.526 7.79 2.593 9.307a1.946 1.946 0 0 1-.977 1.495l-3.05 2.135c-.395.277-.86.436-1.342.458-.103-.005-1.952.436-4.881-6.104a18.734 18.734 0 0 1-14.921 7.02c-3.88.211-14.395-2.203-13.854-13.398-.378-9.124 8.117-14.792 16.904-14.312 1.692.004 5.148.088 11.199 1.494v-3.723c.64-6.307-3.503-11.2-10.68-10.466-.571.003-4.622-.119-10.924 2.41-1.754.806-1.978.672-2.562.672-1.765 0-1.039-5.12-.7-5.768C10.279 3.065 17.584.217 24.752.257a18.315 18.315 0 0 1 13.272 4.119 16.753 16.753 0 0 1 4.211 12.48l-.002 16.514Zm-20.595 7.72c7.728-.112 11-4.76 11.746-7.262.587-2.396.489-3.911.489-6.53-2.305-.554-5.622-1.157-9.428-1.161-3.61-.272-10.205 1.341-9.947 7.688-.296 4.002 2.65 7.484 7.14 7.265Zm40.733 5.494c-1.873.171-2.745-1.159-3.022-2.472L47.481 4.87a9.104 9.104 0 0 1-.458-2.045 1.1 1.1 0 0 1 .92-1.251c.057-.01-.508 0 5.303 0 2.092-.21 2.774 1.437 2.99 2.472L64.75 37.61l7.903-33.565c.126-.768.7-2.639 3.05-2.441h4.09c.517-.043 2.648-.12 3.022 2.472l7.964 33.994 8.787-33.994c.115-.52.648-2.71 3.022-2.472h4.7c.202-.031 1.465-.193 1.251 2.045-.103.44.812-2.54-12.571 40.494-.275 1.313-1.15 2.643-3.022 2.472H88.49c-2.608.274-2.982-2.303-3.022-2.562l-7.903-32.684-7.812 32.65c-.038.26-.412 2.837-3.022 2.562h-4.361v.003Zm65.175 1.342c-1.401.002-8.084-.072-13.67-2.93a3.052 3.052 0 0 1-1.861-2.839v-2.561c0-2.014 1.477-1.645 2.104-1.404 2.393.968 3.928 1.702 6.866 2.288 8.734 1.795 12.576-.548 13.518-1.068 3.133-1.861 3.381-6.12 1.251-8.33-2.498-2.095-3.689-2.174-12.662-5.005-1.106-.308-10.415-3.244-10.436-12.48-.145-6.73 5.97-13.39 16.568-13.335 3.019-.002 11.065.984 13.243 3.723.322.498.482 1.084.458 1.678v2.41c0 1.058-.386 1.587-1.161 1.587-1.837-.205-5.098-2.662-11.716-2.562-1.642-.086-9.506.217-9.153 5.951-.103 4.52 6.341 6.214 7.078 6.41 8.689 2.614 11.594 3.047 15.042 7.05 4.085 5.302 1.883 11.511 1.037 13.213-4.547 8.935-16.306 8.209-16.506 8.204Zm9.58 24.992C120.437 85.245 96.21 91.807 75.524 91.807A111.794 111.794 0 0 1-.087 63.032c-1.557-1.404-.184-3.327 1.708-2.257A151.883 151.883 0 0 0 77.14 80.824a150.182 150.182 0 0 0 57.575-11.81c2.807-1.191 5.188 1.86 2.411 3.904Zm6.957-7.934c-2.135-2.746-14.128-1.282-19.497-.641-1.618.183-1.892-1.22-.426-2.257 9.549-6.715 25.233-4.791 27.034-2.534 1.8 2.257-.488 17.973-9.428 25.481-1.372 1.16-2.685.548-2.075-.977 2.011-5.065 6.527-16.324 4.392-19.072Z" fill="#737373"/></svg>
